libs/icons/src/svg/email-activity.svg

<svg width="16" height="16" viewBox="0 0 16 16" fill="none" xmlns="http://www.w3.org/2000/svg">
<path fill-rule="evenodd" clip-rule="evenodd" d="M3.33333 2.66667C2.96486 2.66667 2.66667 2.96486 2.66667 3.33334V8.66667C2.66667 9.03486 2.36819 9.33334 2 9.33334C1.63181 9.33334 1.33333 9.03486 1.33333 8.66667V3.33334C1.33333 2.22848 2.22848 1.33334 3.33333 1.33334H12.6667C13.7715 1.33334 14.6667 2.22848 14.6667 3.33334V8.66667C14.6667 9.03486 14.3682 9.33334 14 9.33334C13.6318 9.33334 13.3333 9.03486 13.3333 8.66667V3.33334C13.3333 2.96486 13.0351 2.66667 12.6667 2.66667H3.33333ZM8 4C8.36819 4 8.66667 4.29848 8.66667 4.66667V8C8.66667 8.36819 8.36819 8.66667 8 8.66667C7.63181 8.66667 7.33333 8.36819 7.33333 8V4.66667C7.33333 4.29848 7.63181 4 8 4ZM10.6667 5.33334C11.0349 5.33334 11.3333 5.63181 11.3333 6V8C11.3333 8.36819 11.0349 8.66667 10.6667 8.66667C10.2985 8.66667 10 8.36819 10 8V6C10 5.63181 10.2985 5.33334 10.6667 5.33334ZM6 7.33334C6 6.96515 5.70152 6.66667 5.33333 6.66667C4.96514 6.66667 4.66667 6.96515 4.66667 7.33334V8C4.66667 8.36819 4.96514 8.66667 5.33333 8.66667C5.70152 8.66667 6 8.36819 6 8V7.33334ZM0.666667 10C0.298477 10 0 10.2985 0 10.6667V12C0 13.1049 0.895144 14 2 14H14C15.1049 14 16 13.1049 16 12V10.6667C16 10.2985 15.7015 10 15.3333 10H0.666667ZM1.33333 12V11.3333H14.6667V12C14.6667 12.3685 14.3685 12.6667 14 12.6667H2C1.63152 12.6667 1.33333 12.3685 1.33333 12Z" fill="#202327"/>
</svg>

<svg xmlns="http://www.w3.org/2000/svg" viewBox="0 0 16 16" class="sageicon"><path fill-rule="evenodd" d="M3.333 2.667a.666.666 0 0 0-.666.666v5.334a.667.667 0 0 1-1.334 0V3.333a2 2 0 0 1 2-2h9.334a2 2 0 0 1 2 2v5.334a.667.667 0 0 1-1.334 0V3.333a.666.666 0 0 0-.666-.666H3.333ZM8 4c.368 0 .667.298.667.667V8a.667.667 0 0 1-1.334 0V4.667C7.333 4.298 7.632 4 8 4Zm2.667 1.333c.368 0 .666.299.666.667v2A.667.667 0 1 1 10 8V6c0-.368.299-.667.667-.667ZM6 7.333a.667.667 0 0 0-1.333 0V8A.667.667 0 1 0 6 8v-.667ZM.667 10a.667.667 0 0 0-.667.667V12a2 2 0 0 0 2 2h12a2 2 0 0 0 2-2v-1.333a.667.667 0 0 0-.667-.667H.667Zm.666 2v-.667h13.334V12a.666.666 0 0 1-.667.667H2A.666.666 0 0 1 1.333 12Z"/></svg>
